X:1
T:Devil in the Strawsack
M:4/4
L:1/8
Z:Andrew Kuntz
K:G Dorian
GFDF GFDF | GFDF C4 | GFDF G2d2- | dcAc dcAc
| GFDF GFDF | GFDF C4 | GFDF G2d2 | dcA(D G4) |]
d2g2 g2g2- | gagf d4 | fAgA fAgf | dcAc d4
| d2g2 g2g2- | gagf d4 | fAgA a2gf | dcA(D G4) |]
.......................

